assets/2023/icons/rakeTask_dark.svg

<svg width="16" height="16" viewBox="0 0 16 16" fill="none" xmlns="http://www.w3.org/2000/svg">
<path d="M8 1C4.13401 1 1 4.13401 1 8C1 11.866 4.13401 15 8 15C8.28083 15 8.5578 14.9835 8.82999 14.9513L7.43934 13.5607C6.85355 12.9749 6.85355 12.0251 7.43934 11.4393L8.23223 10.6464C9.11752 9.76117 10.5016 9.67862 11.4799 10.3988L14.4393 7.43934C14.5879 7.29074 14.76 7.17984 14.9435 7.10663C14.5048 3.6625 11.5633 1 8 1Z" fill="#402929"/>
<path d="M7.87745 13.9988C4.62031 13.9335 2 11.2728 2 8C2 4.68629 4.68629 2 8 2C11.2736 2 13.9348 4.62161 13.9988 7.87986L14.4393 7.43934C14.5879 7.29074 14.76 7.17984 14.9435 7.10663C14.5048 3.6625 11.5633 1 8 1C4.13401 1 1 4.13401 1 8C1 11.866 4.13401 15 8 15C8.28083 15 8.5578 14.9835 8.82999 14.9513L7.87745 13.9988Z" fill="#DB5C5C"/>
<path d="M15.8536 8.85355C16.0488 8.65829 16.0488 8.34171 15.8536 8.14645C15.6583 7.95118 15.3417 7.95118 15.1464 8.14645L11.5 11.7929L11.0607 11.3536C10.4749 10.7678 9.52513 10.7678 8.93934 11.3536L8.14645 12.1464C7.95118 12.3417 7.95118 12.6583 8.14645 12.8536C8.34171 13.0488 8.65829 13.0488 8.85355 12.8536L9.64645 12.0607C9.84171 11.8654 10.1583 11.8654 10.3536 12.0607L10.7929 12.5L10.6464 12.6464C10.6462 12.6467 10.6467 12.6462 10.6464 12.6464L9.64645 13.6464C9.45118 13.8417 9.45118 14.1583 9.64645 14.3536C9.84171 14.5488 10.1583 14.5488 10.3536 14.3536L11.5 13.2071L11.9393 13.6464C12.1346 13.8417 12.1346 14.1583 11.9393 14.3536L11.1464 15.1464C10.9512 15.3417 10.9512 15.6583 11.1464 15.8536C11.3417 16.0488 11.6583 16.0488 11.8536 15.8536L12.6464 15.0607C13.2322 14.4749 13.2322 13.5251 12.6464 12.9393L12.2071 12.5L15.8536 8.85355Z" fill="#CED0D6"/>
<path d="M8.29593 6.31537C8.636 5.6473 9.25361 5.24573 10.0657 5.24573C11.2168 5.24573 12 6.07096 12 7.35874V9.87887L11.48 10.3988C11.329 10.2877 11.1683 10.1956 11.0013 10.1227V7.43758C11.0013 6.61761 10.5756 6.10775 9.82392 6.10775C9.01971 6.10775 8.49409 6.68068 8.49409 7.59001V10.4184C8.40297 10.4874 8.3155 10.5634 8.23242 10.6465L8.12461 10.7543H7.50591V7.43758C7.50591 6.61761 7.0749 6.10775 6.32852 6.10775C5.5138 6.10775 4.99869 6.68068 4.99869 7.59001V10.7543H4V5.37188H4.96189V6.24862C5.28147 5.60946 5.84915 5.24573 6.6071 5.24573C7.40552 5.24573 8.00368 5.64257 8.29593 6.31537Z" fill="#DB5C5C"/>
</svg>

<svg xmlns="http://www.w3.org/2000/svg" width="16" height="16" fill="none" viewBox="0 0 16 16"><path fill="#402929" d="M8 1a7 7 0 1 0 .83 13.951l-1.39-1.39a1.5 1.5 0 0 1 0-2.122l.792-.793a2.5 2.5 0 0 1 3.248-.247l2.96-2.96c.148-.148.32-.26.504-.332A7 7 0 0 0 8 1"/><path fill="#DB5C5C" d="M7.877 13.999A6 6 0 1 1 14 7.879l.44-.44c.149-.148.321-.26.505-.332A7.001 7.001 0 0 0 1 8a7 7 0 0 0 7.83 6.951z"/><path fill="#CED0D6" d="M15.854 8.854a.5.5 0 0 0-.708-.708L11.5 11.793l-.44-.44a1.5 1.5 0 0 0-2.12 0l-.794.793a.5.5 0 0 0 .708.708l.792-.793a.5.5 0 0 1 .708 0l.439.439-.147.146-1 1a.5.5 0 0 0 .708.708l1.146-1.147.44.44a.5.5 0 0 1 0 .707l-.794.792a.5.5 0 0 0 .708.708l.792-.793a1.5 1.5 0 0 0 0-2.122l-.439-.439z"/><path fill="#DB5C5C" d="M8.296 6.315c.34-.668.958-1.07 1.77-1.07 1.15 0 1.934.826 1.934 2.114v2.52l-.52.52a2.5 2.5 0 0 0-.479-.276V7.438c0-.82-.425-1.33-1.177-1.33-.804 0-1.33.573-1.33 1.482v2.828a3 3 0 0 0-.262.229l-.107.107h-.62V7.438c0-.82-.43-1.33-1.176-1.33-.815 0-1.33.573-1.33 1.482v3.164H4V5.372h.962v.877c.32-.64.887-1.003 1.645-1.003.799 0 1.397.397 1.689 1.07"/></svg>
